!!!ONB: MCCC : ILB0182_01 : Extracted Monophonic Melody
!!!COM: Beethoven, Ludwig van
!!!OPR: Piano Sonata No.21
!!!OMV: 1
!!!SCT: Op.53
!!!ODT: 1803///
**kern
*thru
*staff1
*Ipiano
*clefF4
*k[]
*C:
*M4/4
*MM144
8E
8E
8E
8E
8E
8E
8E
=2
8E
8E
8E
8E
8E
8E
8F#
8F#
=3
4.G
16B
16A
8r
8G
4r
=4
[4ddd
16ddd]
16ccc
16bb
16aa
4gg
4r
=5
8D
8D
8D
8D
8D
8D
8D
8D
=6
8D
8D
8D
8D
8D
8D
8E
8E
=7
4.F
16A
16G
8r
4r
8F
=8
[4ccc
16ccc]
16bb-
16aa-
16gg
4ff
4r
=9
2.fff
16fff
16eee-
16ddd
16ccc
=10
16bb
16ccc
16ddd
16eee-
16fff
16eee-
16ddd
16ccc
16bb
16ccc
16ddd
16eee-
16fff
16eee-
16ddd
16ccc
=11
16bb
16ccc
16ddd
16eee-
16fff
16eee-
16ddd
16ccc
16bb
16aa-
16gg
16ff
16ee-
16dd
16cc
16b
=12
8cc
8r
8g
8r
8e-
8r
8c
8r
=13
1G
=14
16e
16c
16e
16c
16e
16c
16e
16c
16e
16c
16e
16c
16e
16c
16e
16c
=15
16e
16c
16e
16c
16e
16c
16e
16c
16e
16c
16e
16c
16f#
16d
16f#
16d
=16
4.g
16b
16a
8g
8r
4r
=17
[4ddd
16ddd]
16ccc
16bb
16aa
4gg
4r
=18
16f
16d
16f
16d
16f
16d
16f
16d
16f
16d
16f
16d
16f
16d
16f
16d
=19
16f
16d
16f
16d
16f
16d
16f
16d
16f
16d
16f
16d
16g#
16e
16g#
16e
=20
4.a
16cc
16b
8a
8r
4r
=21
[4eee
16eee]
16ddd
16ccc
16bb
4r
4aa
=22
[4eee
16eee]
16ddd
16ccc
16bb
4aa#
4r
=23
[4bb
16bb]
16aa
16gg
16ff#
16gg
16ff#
16ee
16dd#
16ee
16gg
16ff#
16ee
=24
16dd#
16cc#
16b
16a#
16b
16cc#
16dd
16dd#
16ee
16dd#
16ee
16ff#
16gg
16gg#
16aa
16aa#
=25
16bb
16aa#
16bb
16aa#
16bb
16aa
16gg
16ff#
16gg
16ff#
16ee
16dd#
16ee
16gg
16ff#
16ee
=26
16dd#
16cc#
16b
16a#
16b
16cc#
16dd
16dd#
16ee
16dd#
16ee
16ff#
16gg
16gg#
16aa
16aa#
=27
16bb
16ff#
16dd#
16b
16a#
16b
16ee
16gg
16bb
16ff#
16dd#
16b
16a#
16b
16ee
16gg
=28
16bb
16ff#
16dd#
16b
16bb
16gg
16ee
16b
16bb
16ff#
16dd#
16b
16bb
16gg
16ee
16b
=29
16bb
16ff#
16dd#
16b
16ff#
16dd#
16b
16f#
16dd#
16b
16f#
16d#
16b
16f#
16d#
16B
=30
16f#
16d#
16B
16F#
16d#
16B
16F#
16D#
16B
16F#
16D#
16BB
4r
=31
2r
8b
8B
8cc#
8c#
=32
8dd#
8d#
4r
8dd#
8d#
8ee
8e
=33
8ff#
8f#
8gg#
8g#
8aa
8a
8aa
8b
=34
8aa
8cc#
8aa
8dd#
8aa
8ee
8aa
8ff#
=35
2gg#
4ff#
4ee
=36
2dd#
2cc#
=37
2dd#
4ee
4ff#
=38
2gg#
2ff#
=39
2g#
4f#
4e
=40
2d#
2c#
=41
2B
4c#
4d#
=42
12e
12f#
12g#
12a
12b
12cc#
12dd
12dd#
12ee
12ee#
12ff#
12ff##
=43
12gg#
12ff##
12gg#
12aa
12ff##
12gg#
4a
4g#
=44
2f#
2e
=45
2a
4b
4cc#
=46
12gg#
12ff##
12gg#
12bb
12aa
12gg#
12ff#
12ee
12dd#
12cc#
12b
12a
=47
12g#
12f##
12g#
12a
12f##
12g#
4A
4G#
=48
2F#
2E
=49
4E
4F#
4F#
4F#
=50
12e
12B
12G#
12B
12e
12g#
12f#
12d#
12B
12d#
12f#
12a
=51
12g#
12e
12B
12e
12g#
12b
12a
12f#
12d#
12dd#
12a
12f#
=52
4ee
2b
[4b
=53
4b]
2b
4b
=54
12ee
12b
12g#
12b
12ee
12gg#
12ff#
12dd#
12b
12dd#
12ff#
12aa
=55
12gg#
12ee
12b
12ee
12gg#
12bb
12aa
12ff#
12dd#
12ddd#
12bb
12ff#
=56
12eee
12bb
12gg#
12bb
12gg#
12ee
12aa
12ff#
12dd#
12ddd#
12bb
12ff#
=57
12eee
12bb
12gg#
12bb
12gg#
12ee
12aa
12ff#
12dd#
12ddd#
12bb
12ff#
=58
16eee
16bb
16gg#
16ee
16aa
16ff#
16ddd#
16bb
16eee
16bb
16gg#
16ee
16aa
16ff#
16ddd#
16bb
=59
16eee
16bb
16ddd#
16bb
16eee
16bb
16ddd#
16bb
16eee
16bb
16ddd#
16bb
16eee
16bb
16ddd#
16bb
=60
16eee
16bb
16ddd
16bb
16ddd
16bb
16ddd
16bb
16ddd
16bb
16ddd
16bb
16ddd
16bb
16ddd
16bb
=61
8ddd
16ccc#
16bb
16aa
16gg#
16ff#
16ee
16dd
16cc#
16b
16a
16g#
16f#
16e
16d
=62
16c#
16d#
16e
16d#
16e
16g#
16a
16g#
16a
16b#
16cc#
16b#
16cc#
16dd#
16ee
16dd#
=63
16ee
16gg#
16aa
16gg#
16aa
16bb#
16ccc#
16bb#
16ccc#
16ddd#
16eee
16ddd#
16eee
16ddd#
16ccc#
16bb#
=64
16ccc#
16bb#
16ccc#
16ddd#
16eee
16ddd#
16ccc#
16bb#
16ccc#
16bb#
16ccc#
16ddd#
16eee
16ddd#
16ccc#
16bb#
=65
16ccc#
16bb#
16ccc#
16ddd#
16eee
16ddd#
16ccc#
16bb#
16ccc#
16bb#
16ccc#
16ddd#
16eee
16ddd#
16eee
16ccc#
=66
8bb
8bb
8gg#
8ee
8eee
8eee
8bb
8gg#
=67
8bb
8bb
8gg#
8ee
8eee
8eee
8bb
8gg#
=68
16r
16gg#
16bb
16gg#
16bb
16gg#
16bb
16gg#
16bb
16gg#
16bb
16gg#
16bb
16gg#
16bb
16gg#
=69
16bb
16gg#
16bb
16gg#
16bb
16gg#
16bb
16gg#
16bb
16gg#
16bb
16gg#
16bb
16gg#
16bb
16gg#
=70
16r
16aa
16bb
16aa
16ccc
16aa
16bb
16aa
16ccc
16aa
16bb
16aa
16ccc
16aa
16bb
16aa
=71
16ccc
16aa
16bb
16aa
16ccc
16aa
16bb
16aa
16ccc
16aa
16bb
16aa
16ccc
16aa
16bb
16aa
=72
16ccc#
16aa
16bb
16aa
16ccc#
16aa
16bb
16aa
16ccc#
16aa
16bb
16aa
16ccc#
16aa
16bb
16aa
=73
16fff#
16bb
16fff#
16bb
16fff#
16bb
16fff#
16bb
16fff#
16bb
16fff#
16bb
16fff#
16bb
16fff#
16bb
=74
2.eee
16eee
16ddd
16ccc
16bb
=75
16ccc
16bb
16aa
16gg#
16aa
16bb
16ccc
16ddd
16eee
16fff
16eee
16ddd#
16eee
16ddd
16ccc
16bb
=76
16ccc
16ddd
16ccc
16bb
16aa
16gg#
16aa
16bb
4ccc
8aa
8ff#
=77
4bb
8gg
8ee
4aa
8ff#
8dd#
=78
2.ee
16ee
16dd
16cc
16b
=79
16cc
16b
16a
16g#
16a
16b
16cc
16dd
16ee
16ff
16ee
16dd#
16ee
16dd
16cc
16b
=80
16a
16g#
16a
16b
16cc
16dd
16cc
16b
.
4cc
=81
4b
8g
8e
4a
8f#
8d#
=82
4e
8ee
8dd
4cc
8a
8f
=83
4b
8g
8e
4a
8f#
8d#
=84
4e
8cc
8b
4a
8f
8d
=85
4g
8e
8c
4f
8d
8B
=86
8c
8E
8E
8E
8E
8E
8E
8E
=87
8E
8E
8E
8E
8E
8E
8F#
8F#
=88
4c
8ff
8ee
4dd
8b-
8g
=89
4cc
8a
8f
4b-
8g
8e
=90
4f
8f
8e
4d
8B-
8G
=91
4c
8A
8F
4B-
8G
8E
=92
8F
8AA
8AA
8AA
8AA
8AA
8AA
8AA
=93
8AA
8AA
8AA
8AA
8AA
8AA
8BB
8BB
=94
4.C
16E
16D
8C
8r
4r
=95
[4gg
16gg]
16ff
16ee-
16dd
4r
4cc
=96
4.F#
16A
16G
8r
4r
8F#
=97
[4eee-
16eee-]
16ddd
16ccc
16bb-
4r
4aa
=98
8B-
16d
16c
4B-
16ccc
16bb-
16aa
16gg
4ff#
=99
8g
16b-
16a
4g
16eee-
16ddd
16ccc
16bb-
4aa
=100
8B-
16d
16c
4B-
16ccc
16bb-
16aa
16gg
4ff#
=101
16dd
16cc
16b-
16a
4g
16aa-
16gg
16ff
16ee-
4dd
=102
8e-
16g
16f
4e-
16ff
16ee-
16dd
16cc
4b
=103
8c
16e-
16d
4c
16aa-
16gg
16ff
16ee-
4dd
=104
8e-
16g
16f
4e-
16ff
16ee-
16dd
16cc
4b
=105
16gg
16ff
16ee-
16dd
4cc
16ddd-
16ccc
16bb-
16aa-
4gg
=106
8aa-
16ccc
16bb-
4aa-
8ddd-
16fff
16eee-
4ddd-
=107
8g-
16b-
16a-
4g-
2cc-
=108
8ff
16aa
16gg
4ff
8bb-
16ddd-
16ccc
4bb-
=109
8e-
16g
16f
4e-
2a-
=110
8dd-
16ff
16ee-
4dd-
8gg-
16bb-
16aa-
4gg-
=111
8c
16e
16d
4c
2cc
=112
8cc
16ee
16dd
4cc
2ccc
=113
*M4/4
8ccc
16eee
16ddd
8ccc
8ccc
8ccc
8ccc
8fff
8bb
=114
4ccc
2g
4g
=115
12cc
12g
12e
12g
12cc
12ee
12dd
12b
12a-
12b
12dd
12ff
=116
12ee
12dd-
12b-
12dd-
12ee
12gg
12bb-
12ee
12ddd-
12ee
12dd-
12bb-
=117
12dd-
12b-
12ee
12b-
12e
12dd-
12b-
12e
12cc
12b-
12e
12cc
=118
4cc
2cc
4cc
=119
12ff
12cc
12a
12ee
12ff
12aa
12gg
12ee
12dd-
12ee
12gg
12bb-
=120
12aa
12gg-
12ee-
12gg-
12aa
12ccc
12aa
12gg-
12eee-
12gg-
12ee-
12ccc
=121
12ee-
12cc
12aa
12ee-
12a
12gg-
12ee-
12a
12ff
12ee-
12a
12ff
=122
4ff
2f
4f
=123
12b-
12f
12d
12f
12b-
12dd
12cc
12a
12g-
12a
12cc
12ee-
=124
12dd
12cc-
12a-
12cc-
12dd
12ff
12aa-
12ee
12ccc-
12dd
12cc-
12aa-
=125
12cc-
12a-
12ff
12a-
12f
12dd
12a-
12d
12cc-
12a-
12d
12b-
=126
12gg-
12ee-
12b-
12ee-
12gg-
12bb-
12gg-
12ee-
12eee-
12ee-
12b-
12bb-
=127
12b-
12g-
12gg-
12g-
12e-
12ee-
12g-
12e-
12ee-
12g-
12e-
12ee-
=128
12ff#
12ee
12cc#
12ee
12ff#
12ccc#
12ff#
12ee
12eee
12ee
12cc#
12ccc#
=129
12cc#
12f#
12ff#
12f#
12e
12ee
12f#
12e
12ee
12f#
12e
12ee
=130
12ff#
12dd
12b
12dd
12ff#
12bb
12ff#
12dd
12ddd
12dd
12b
12bb
=131
12b
12f#
12ff#
12f#
12d
12dd
12f#
12d
12dd
12f#
12d
12dd
=132
12gg
12dd
12b
12dd
12gg
12bb
12gg
12dd
12ddd
12dd
12b
12bb
=133
12b
12g
12gg
12g
12f
12ff
12g
12d
12dd
12g
12d
12dd
=134
12ccc
12gg
12ee-
12gg
12ccc
12eee-
12gg
12ee-
12eee-
12ee-
12cc
12ccc
=135
12cc
12g
12gg
12g
12e-
12ee-
12g
12e-
12ee-
12g
12e-
12ee-
=136
12ff
12dd-
12a-
12dd-
12ff
12aa-
12ff
12dd-
12a-
12ff
12dd-
12a-
=137
12ee-
12cc
12a
12cc
12ee-
12aa
12ee-
12cc
12a
12ee-
12cc
12a
=138
4r
12b
12dd
12gg
12dd
12b
12g
12ff
12b
12g
=139
12ff
12dd
12g
12ee-
12dd
12g
12ee-
12cc
12g
12dd
12cc
12a
=140
4r
12B
12d
12g
12d
12B
12G
12f
12B
12G
=141
12f
12d
12G
12e-
12d
12G
12e-
12c
12G
12d
12c
12A
=142
12d
12B
12G
12c
12G
12E-
12B
12G
12D
12A
12E-
12C
=143
12G
12D
12BB
12F#
12E-
12AA
12G
12D
12BB
12F#
12E-
12AA
=144
1G
=145
16G
16D
16E
16F#
16G
16D
16E
16F#
16G
16D
16E
16F#
16G
16D
16E
16F#
=146
[1G
=147
16G]
16F#
16G
16A
16B
16F#
16G
16A
16B
16F#
16G
16A
16B
16F#
16G
16A
=148
8B
8r
8r
16B
16c
8d
8r
8r
24d
24e
24f#
=149
8g
8r
8r
16g
16a
8b
16b
16cc
8dd
24dd
24ee
24ff#
=150
8gg
8r
8r
24d
24e
24f#
8r
8g
8r
16g
16a
=151
8b
8r
8r
16b
16cc
8dd
24dd
24ee
24ff#
8gg
16gg
16aa
=152
4bb
8r
24dd
24ee
24ff#
4gg
8r
16gg
16aa
=153
4bb
8r
16gg
16aa
8bb
16bb
16ccc
8ddd
16ddd
16eee
=154
4fff
8r
16ddd
16eee
4fff
8r
16ddd
16eee
=155
8fff
16ddd
16eee
8fff
16ddd
16eee
8fff
16ddd
16eee
8fff
16ddd
16eee
=156
16fff
16eee
16ddd
16ccc
16bb
16ccc
16ddd
16eee
16fff
16eee
16ddd
16ccc
16bb
16ccc
16ddd
16eee
=157
8fff
16eee
16ddd
16ccc
16bb
16aa
16gg
16ff
16ee
16dd
16cc
16b
16a
16g
16f
=158
8e
8E
8E
8E
8E
8E
8E
8E
=159
8E
8E
8E
8E
8E
8E
8F#
8F#
=160
4.G
16B
16A
8r
4r
8G
=161
[4ddd
16ddd]
16ccc
16bb
16aa
4gg
4r
=162
8D
8D
8D
8D
8D
8D
8D
8D
=163
8D
8D
8D
8D
8D
8D
8E
8E
=164
4.F
16A
16G
8r
4r
8F
=165
[4ccc
16ccc]
16bb-
16aa-
16gg
4ff
4r
=166
2.fff
16fff
16eee-
16ddd
16ccc
=167
16bb
16ccc
16ddd
16eee-
16fff
16eee-
16ddd
16ccc
16bb
16ccc
16ddd
16eee-
16fff
16eee-
16ddd
16ccc
=168
16bb
16ccc
16ddd
16eee-
16fff
16eee-
16ddd
16ccc
16bb
16aa-
16gg
16ff
16ee-
16dd
16cc
16b
=169
8cc
8r
8g
8r
8e-
8r
8c
8r
=170
1A-
=171
8dd-
8r
8a-
8r
8f
8r
8d-
8r
=172
1B-
=173
16r
16g
16b-
16ee-
16r
16g
16b-
16ee-
16r
16g
16b-
16ee-
16r
16g
16b-
16ee-
=174
16r
16f
16a-
16ee-
16r
16f
16b
16dd
16r
16e-
16f#
16dd
16r
16e-
16a
16cc
=175
16r
16d
16g
16cc
16r
16d
16g
16cc
16r
16d
16g
16b
16r
16d
16f
16b
=176
8cc
16e
16c
16e
16c
16e
16c
16e
16c
16e
16c
16e
16c
16e
16c
=177
16e
16c
16e
16c
16e
16c
16e
16c
16e
16c
16e
16c
16f#
16d
16f#
16d
=178
4.g
16b
16a
8g
8r
4r
=179
[4ddd
16ddd]
16ccc
16bb
16aa
4gg
4r
=180
16f
16d
16f
16d
16f
16d
16f
16d
16f
16d
16f
16d
16f
16d
16f
16d
=181
16f
16d
16f
16d
16f
16d
16f
16d
16f
16d
16f
16d
16g#
16e
16g#
16e
=182
4.a
16cc
16b
8a
8r
4r
=183
[4eee
16eee]
16ddd
16ccc
16bb
4aa
4r
=184
[4ccc
16ccc]
16bb
16aa
16gg#
4aa
4r
=185
[4ccc
16ccc]
16bb
16aa
16gg#
16aa
16gg#
16aa
16bb
16ccc
16ccc#
16ddd
16ddd#
=186
[4eee
16eee]
16ddd
16ccc
16bb
16ccc
16bb
16aa
16gg#
16aa
16ccc
16bb
16aa
=187
16gg#
16ff#
16ee
16dd#
16ee
16ff#
16gg
16gg#
16aa
16gg#
16aa
16bb
16ccc
16ccc#
16ddd
16ddd#
=188
16eee
16ddd#
16eee
16ddd#
16eee
16ddd
16ccc
16bb
16ccc
16bb
16aa
16gg#
16aa
16ccc
16bb
16aa
=189
16gg#
16ff#
16ee
16dd#
16ee
16ff#
16gg
16gg#
16aa
16gg#
16aa
16bb
16ccc
16ccc#
16ddd
16ddd#
=190
16eee
16bb
16gg#
16ee
16dd#
16ee
16aa
16ccc
16eee
16bb
16gg#
16ee
16dd#
16ee
16aa
16ccc
=191
16eee
16bb
16gg#
16ee
16eee
16ccc
16aa
16ee
16eee
16bb
16gg#
16ee
16eee
16ccc
16aa
16ee
=192
16eee
16bb
16gg#
16ee
16bb
16gg#
16ee
16b
16gg#
16ee
16b
16g#
16ee
16b
16g#
16e
=193
16b
16g#
16e
16B
16g#
16e
16B
16G#
16e
16B
16G#
16E
4r
=194
2r
8ee
8e
8ff#
8f#
=195
8gg#
8g#
4r
8gg#
8g#
8aa
8a
=196
8bb
8b
8ccc#
8cc#
8ddd
8dd
8ddd
8ee
=197
8ddd
8ff#
8ddd
8gg#
8ddd
8aa
8ddd
8bb
=198
2ccc#
4bb
4aa
=199
2gg#
2ff#
=200
2gg#
4aa
4bb
=201
2ccc#
2bb
=202
2cc
4b
4a
=203
2g
2f
=204
2g
4a
4b
=205
12cc
12dd
12ee
12ff
12gg
12aa
12bb-
12bb
12ccc
12ccc#
12ddd
12ddd#
=206
12eee
12ddd#
12eee
12fff
12ddd#
12eee
4bb
4aa
=207
2gg#
2ff
=208
2ff
4gg
4aa
=209
12eee
12ddd#
12eee
12ggg
12fff
12eee
12ddd
12ccc
12bb
12aa
12gg
12ff
=210
12ee
12dd#
12ee
12ff
12dd#
12ee
4f
4e
=211
2d
2c
=212
12c
12e
12g
12d
12f
12g
12d
12f
12a
12d
12f
12b
=213
12cc
12G
12E
12G
12c
12e
12d
12B
12G
12B
12d
12f
=214
12e
12c
12G
12c
12e
12g
12f
12d
12B
12b
12f
12d
=215
4cc
2g
[4g
=216
4g]
2g
4g
=217
12cc
12g
12e
12g
12cc
12ee
12dd
12b
12g
12b
12dd
12ff
=218
12ee
12cc
12g
12cc
12ee
12gg
12ff
12dd
12b
12bb
12gg
12dd
=219
12ccc
12gg
12ee
12gg
12ee
12cc
12ff
12dd
12b
12bb
12gg
12dd
=220
12ccc
12gg
12ee
12gg
12ee
12cc
12ff
12dd
12b
12bb
12gg
12dd
=221
16ccc
16gg
16ee
16cc
16ff
16dd
16bb
16gg
16ccc
16gg
16ee
16cc
16ff
16dd
16bb
16gg
=222
16ccc
16gg
16bb
16gg
16ccc
16gg
16bb
16gg
16ccc
16gg
16bb
16gg
16ccc
16gg
16bb
16gg
=223
16ccc
16gg
16bb-
16gg
16bb-
16gg
16bb-
16gg
16bb-
16gg
16bb-
16gg
16bb-
16gg
16bb-
16gg
=224
8bb-
16aa
16gg
16ff
16ee
16dd
16cc
16b-
16a
16g
16f
16e
16d
16c
16B-
=225
16A
16B
16c
16B
16c
16e
16f
16e
16f
16g#
16a
16g#
16a
16b
16cc
16b
=226
16cc
16ee
16ff
16ee
16ff
16gg#
16aa
16gg#
16aa
16bb
16ccc
16bb
16ccc
16bb
16aa
16gg#
=227
16aa
16gg#
16aa
16bb
16ccc
16bb
16aa
16gg#
16aa
16gg#
16aa
16bb
16ccc
16bb
16aa
16gg#
=228
16aa
16gg#
16aa
16bb
16ccc
16bb
16aa
16gg#
16aa
16gg#
16aa
16bb
16ccc
16bb
16ccc
16aa
=229
8gg
8gg
8ee
8cc
8ccc
8ccc
8gg
8ee
=230
8gg
8gg
8ee
8cc
8ccc
8ccc
8gg
8ee
=231
16r
*8va
16ccc
16eee
16ccc
16ggg
16eee
16ggg
16eee
16ggg
16eee
16ggg
16eee
16ggg
16eee
16ggg
16eee
=232
16ggg
16eee
16ggg
16eee
16ggg
16eee
16ggg
16eee
16ggg
16eee
16ggg
16eee
16ggg
16eee
16ggg
16eee
=233
16r
16fff
16ggg
16fff
16aaa-
16fff
16ggg
16fff
16aaa-
16fff
16ggg
16fff
16aaa-
16fff
16ggg
16fff
=234
16aaa-
16fff
16ggg
16fff
16aaa-
16fff
16ggg
16fff
16aaa-
16fff
16ggg
16fff
16aaa-
16fff
16ggg
16fff
=235
16aaa
16fff
16ggg
16fff
16aaa
16fff
16ggg
16fff
16aaa
16fff
16ggg
16fff
16aaa
16fff
16ggg
16fff
=236
8aaa
8ggg
8ggg
8ggg
8ggg
8ggg
8ggg
8ggg
=237
*X8va
2.ccc
16ccc
16bb-
16aa-
16gg
=238
16aa-
16gg
16ff
16ee
16ff
16gg
16aa-
16bb-
16ccc
16ddd-
16ccc
16bb
16ccc
16bb-
16aa-
16gg
=239
16aa-
16bb-
16aa-
16gg
16ff
16ee
16ff
16gg
4aa-
8ff
8dd-
=240
4gg
8ee-
8cc
4ff
8dd
8b
=241
2.cc
16cc
16b-
16a
16g
=242
16a
16g
16f
16e
16f
16g
16a
16b-
16cc
16dd
16cc
16b
16cc
16b-
16a
16g
=243
16a
16b-
16a
16g
16f
16e
16f
16g
4a
8f
8d
=244
4g
8e
8c
4f
8d
8B
=245
4c
8cc
8b
4a
8f
8d
=246
4g
8e
8c
4f
8d
8B
=247
4c
8ff
8ee
4dd
8b-
8g
=248
4cc
8a
8f
4b-
8g
8e
=249
4f
8ff
8ee-
4dd-
8b-
8g
=250
4cc
8a-
8f
4b-
8g
8e
=251
8f
8F
8F
8F
8F
8F
8F
8F
=252
8F
8F
8F
8F
8F
8F
8G
8G
=253
4.A-
16c
16B-
8A-
8r
4r
=254
[4eee-
16eee-]
16ddd-
16ccc
16bb-
4aa
4r
=255
4.B-
16d-
16c
8B-
8r
4r
=256
[4fff
16fff]
16eee-
16ddd
16ccc
4bb
4r
=257
8c
16e-
16d
8r
8c
16aa-
16gg
16ff
16ee-
4dd
=258
8e
16g
16f
8e
8r
16ccc
16bb-
16aa-
16gg
4ff
=259
16eee-
16ddd
16ccc
16bb
4ccc
16ee-
16dd
16cc
16b
4cc
=260
16e-
16d
16c
16B
4c
16ee-
16dd
16cc
16b
16cc
16dd
16ee-
16ff#
=261
8gg
8gg
8gg
8gg
8gg
8gg
8gg
8gg
=262
8gg
8gg
8gg
8gg
8gg
8gg
8gg
8gg
=263
8gg
4ggg
4fff
4eee
8ddd[
=264
8ddd]
4ccc
4bb
4aa
8gg
=265
16ff
16d
16e
16f
16g
16a
16b
16cc#
16dd
16f
16g
16a
16b
16cc#
16dd
16ee
=266
16ff
16dd
16ee
16ff
16gg
16aa
16bb
16ccc#
16ddd
16ccc#
16ddd
16eee
16fff
16ccc#
16ddd
16eee
=267
8fff
4fff
4eee
4ddd
8ccc[
=268
8ccc]
4bb
4aa
4gg
8ff
=269
16ee
16e
16f
16g
16a
16b
16cc
16dd
16ee
16a
16b
16cc
16dd
16ee
16ff#
16gg#
=270
16aa
16ee
16ff#
16gg#
16aa
16bb
16ccc
16ddd
16eee
16ddd
16ccc
16bb
16aa
16bb
16ccc
16aa
=271
16r
16f
16g
16a
16b
16cc
16dd
16ee
16ff
16b
16cc
16dd
16ee
16ff
16gg
16aa
=272
16bb
16ff
16gg
16aa
16bb
16ccc
16ddd
16eee
16fff
16eee
16ddd
16ccc
16bb
16ccc
16ddd
16bb
=273
16r
16gg
16aa
16bb
16ccc
16ddd
16eee
16fff
16ggg
16fff
16eee
16ddd
16ccc#
16ddd
16eee
16ccc#
=274
16r
16cc#
16dd
16ee
16ff
16gg
16aa
16ff[
16ff]
16dd#
16ee
16ff#
16gg
16aa
16bb
16gg[
=275
16gg]
16ee
16ff
16gg
16aa
16bb
16ccc
16aa[
16aa]
16ff#
16gg
16aa
16bb
16ccc
16ddd
16bb[
=276
16bb]
16gg#
16aa
16bb
16ccc
16ddd
16eee
16ccc[
16ccc]
16aa#
16bb
16ccc
16ddd
16eee
16fff
16ddd
=277
8r
24gg
24ccc
24ggg
8r
24gg
24ccc
24ggg
8r
24gg#
24ccc
24ggg#
8r
24gg#
24ccc
24ggg#
=278
16aa
16aaa
16ggg
16fff
16eee
16ddd
16ccc
16bb
16aa
16gg
16ff
16ee
16dd
16cc
16b
16a
=279
16g#
16a
16g
16f
16e
16d
16c
16B
16A
16G
16F
16E
16D
16C
16BB
16AA
=280
16GG
16C
16BB
16D
16C
16E
16D#
16F
16E
16G
16F#
16A
16G
16c
16B
16d
=281
16c
16e
16d#
16f
16e
16g
16f#
16a
16g
16cc
16b
16dd
16cc
16ee
16dd#
16ff
=282
16ee
16gg
16ff#
16aa
16gg
16ccc
16bb
16ccc
16gg
16eee
16ddd#
16eee
16gg
16ccc
16bb
16ccc
=283
16gg
16eee
16ddd#
16eee
16gg
16ccc
16bb
16ccc
16gg
16eee
16ddd#
16eee
16gg
16ccc
16bb
16ccc
=284
1fff
=285
1ff
=286
2e
4d
4c
=287
2B
2A
=288
2b
4cc
4dd
=289
2ee
4dd
8gg
8ff
=290
4r
4ddd
4eee
4ccc
=291
2bb
2aa
=292
2gg
4aa
4bb
=293
1g
=294
2a-
2b
=295
1G
=296
2A
2B
=297
8c
8e
8e
8e
8e
8e
8e
8e
=298
8e
8e
8e
8e
8e
8e
8f#
8f#
=299
8g
16b
16a
8g
8r
8cc
16ee
16dd
8cc
8r
=300
8ff
16aa
16gg
8ff
8r
16fff
16eee
16fff
16eee
16fff
16eee
16fff
16eee
=301
16fff
16eee
16ddd
16ccc
16bb
16aa
16gg
16ff
16ee
16dd
16cc
16b
16a
16g
16f
16e
=302
4d
4gg
2r
=303
4ee
4r
4gg
4r
=304
4ccc
4r
2r
==
*-
